X:24
T:Calum's Road
R:strathspey
C:Donald Shaw, Scotland
Z:id:hn-strathspey-24
M:C
L:1/8
K:D
|: D2 A>F A2 A2 | B2 d>c B>A F>A | B<d D>E F2 E>D | B,<D D/E/F E2 E2 |
D2 A>F A2 A2 | B<d d>c B>A F<A | B<d D>E F2 E>D | B,<D D>E D4 :|
|: B2 d>c B2 B2 | A>B A<E F<A- A2 | B2 d>c B2 (3BAB | d2 d>e (3fed (3dBA |
B2 d>c B2 B2 | A>B A<E F3A | B2 d>E F2 E>D | B,<D D>E D4 :|

